X:1
T:Title
%%score { 1 | ( 2 3 ) }
L:1/8
M:4/4
K:Bb
V:1 treble nm="Grand Piano"
V:2 bass 
V:3 bass 
V:1
 z4 z2[Q:1/4=100] [B,D]E | [DF]2 [Fd]2 [Ec][DB][FA][EG] | [DF]6 F2 | F2 e2 dcBA |[M:3/4] [B,DB]6 | %5
[M:1/4] [B,D]E |[M:4/4] [DF]2 [Fd]2 [Ec][DB][FA][EG] | [DF]6 F2 | G2 [Ge]2 dcBA |[M:3/4] [DB]6 | %10
 [DF]2 FA c2 | F2 [DF][DB] [Fd]2 | [DF]2 FA c2 |[M:5/8] F2 [DF] [DB][Fd]- |[M:1/4] [Fd]2 | DE | %16
[M:4/4] [DF]2 [Fd]2 [Ec][DB][FA][EG] | [DF]6 F2 | G2 [Ge]2 dcBA |[M:7/4] [DB]6 z2 z2 z4 |] %20
V:2
 z4 z2 z C | [B,,B,]2 [B,,B,]2 [B,,B,][B,,B,][B,,B,][B,,B,] | [B,,B,]6 [D,B,]2 | %3
 [F,A,]2 [F,CF]2 [F,B,F][F,A,F][F,DF][F,CE] |[M:3/4] B,,6 |[M:1/4] z C | %6
[M:4/4] [B,,B,]2 [B,,B,]2 [B,,B,][B,,B,][B,,B,][B,,B,] | [B,,B,]6 [D,B,]2 | %8
 [E,B,E]2 [E,B,]2 [F,B,F][F,E][F,D][F,C] |[M:3/4] [B,,F,]6 | [B,,B,]2 [F,CE][F,CF] [F,A,F]2 | %11
 [F,A,E]2 [B,,B,][B,,B,] [B,,B,]2 | [B,,B,]2 [F,CE][F,CF] [F,A,F]2 | %13
[M:5/8] [F,A,E]2 [B,,B,] [B,,B,][B,,B,]- |[M:1/4] [B,,B,]2 | B,C | %16
[M:4/4] [B,,B,]2 [B,,B,]2 [B,,B,][B,,B,][B,,B,][B,,B,] | [B,,B,]6 [D,B,]2 | %18
 [E,B,E]2 [E,B,]2 [F,B,F][F,E][F,D][F,C] |[M:7/4] [B,,F,]6 z2 z2 z4 |] %20
V:3
 z4 z2 B,,2 | x8 | x8 | x8 |[M:3/4] x6 |[M:1/4] B,,2 |[M:4/4] x8 | x8 | x8 |[M:3/4] x6 | x6 | x6 | %12
 x6 |[M:5/8] x5 |[M:1/4] x2 | B,,2 |[M:4/4] x8 | x8 | x8 |[M:7/4] x14 |] %20

